X: 28738
T: My Friend Buddy
R: jig
M: 6/8
K: Fmajor
FGD FGA|cdA cAG|FGD FGA|fgd f2 D|
FGA F2 A|cde cAF|GAB GAc|d3 f2:|

